docs/img/footer/VK_Color.svg

<svg width="80" height="80" viewBox="0 0 80 80" fill="none" xmlns="http://www.w3.org/2000/svg">
<g id="VK">
<path id="back" fill-rule="evenodd" clip-rule="evenodd" d="M0 40C0 17.9086 17.9086 0 40 0C62.0914 0 80 17.9086 80 40C80 62.0914 62.0914 80 40 80C17.9086 80 0 62.0914 0 40Z" fill="#4C6C91"/>
<path id="Shape" fill-rule="evenodd" clip-rule="evenodd" d="M42.0931 51.7935C42.0931 51.7935 42.8632 51.7095 43.2576 51.2937C43.6186 50.9126 43.6061 50.1937 43.6061 50.1937C43.6061 50.1937 43.5581 46.8363 45.1462 46.3406C46.7113 45.853 48.7209 49.5873 50.8536 51.0233C52.4647 52.1089 53.6875 51.8713 53.6875 51.8713L59.3867 51.7935C59.3867 51.7935 62.3667 51.6132 60.9539 49.3128C60.837 49.1244 60.1296 47.6106 56.7176 44.5011C53.1429 41.2461 53.6229 41.7726 57.9259 36.1415C60.547 32.7124 61.5945 30.6189 61.2669 29.7238C60.956 28.8675 59.0277 29.0949 59.0277 29.0949L52.6128 29.1338C52.6128 29.1338 52.137 29.0703 51.7844 29.2772C51.44 29.48 51.2167 29.9532 51.2167 29.9532C51.2167 29.9532 50.2025 32.6059 48.8482 34.8632C45.9913 39.6238 44.8498 39.8757 44.3824 39.5808C43.2951 38.8904 43.5664 36.8113 43.5664 35.3344C43.5664 30.7193 44.2801 28.7958 42.1787 28.298C41.4817 28.1321 40.9683 28.0236 39.1841 28.0051C36.8948 27.9826 34.9583 28.0133 33.8606 28.5398C33.1302 28.89 32.5668 29.6725 32.9111 29.7176C33.3347 29.7729 34.2947 29.9716 34.8038 30.6517C35.4612 31.5305 35.4382 33.501 35.4382 33.501C35.4382 33.501 35.816 38.9335 34.5555 39.6074C33.6916 40.0703 32.5062 39.126 29.9582 34.8059C28.654 32.5936 27.669 30.1478 27.669 30.1478C27.669 30.1478 27.4791 29.691 27.1389 29.4452C26.7278 29.1481 26.1539 29.056 26.1539 29.056L20.0583 29.0949C20.0583 29.0949 19.1422 29.1195 18.8062 29.5107C18.5078 29.8569 18.7833 30.5759 18.7833 30.5759C18.7833 30.5759 23.5558 41.537 28.9607 47.0616C33.9169 52.1253 39.543 51.7935 39.543 51.7935H42.0931Z" fill="white"/>
</g>
</svg>

<svg width="80" height="80" fill="none" xmlns="http://www.w3.org/2000/svg"><g fill-rule="evenodd" clip-rule="evenodd"><path d="M0 40C0 17.909 17.909 0 40 0s40 17.909 40 40-17.909 40-40 40S0 62.091 0 40z" fill="#4C6C91"/><path d="M42.093 51.794s.77-.084 1.165-.5c.36-.381.348-1.1.348-1.1s-.048-3.358 1.54-3.853c1.565-.488 3.575 3.246 5.708 4.682 1.61 1.086 2.834.848 2.834.848l5.699-.078s2.98-.18 1.567-2.48c-.117-.189-.824-1.702-4.236-4.812-3.575-3.255-3.095-2.728 1.208-8.36 2.621-3.429 3.668-5.522 3.34-6.417-.31-.857-2.238-.63-2.238-.63l-6.415.04s-.476-.064-.829.143c-.344.203-.567.676-.567.676s-1.014 2.653-2.369 4.91c-2.857 4.76-3.998 5.013-4.466 4.718-1.087-.69-.816-2.77-.816-4.247 0-4.615.714-6.538-1.387-7.036-.697-.166-1.21-.274-2.995-.293-2.29-.022-4.226.008-5.323.535-.73.35-1.294 1.133-.95 1.178.424.055 1.384.254 1.893.934.657.878.634 2.849.634 2.849s.378 5.433-.883 6.106c-.863.463-2.049-.481-4.597-4.801-1.304-2.212-2.289-4.658-2.289-4.658s-.19-.457-.53-.703c-.411-.297-.985-.389-.985-.389l-6.096.039s-.916.024-1.252.416c-.298.346-.023 1.065-.023 1.065s4.773 10.961 10.178 16.486c4.956 5.063 10.582 4.732 10.582 4.732h2.55z" fill="#fff"/></g></svg>
